**harm	**harte	**timestamp	**phrase	**leadinstrument	**kern
*M4/4	*M4/4	*	*	*	*
*E:	*E:	*	*	*	*E:
1r;	N	0	.	r	1r;
=1	=1	=1	=1	=1	=1
*>A_intro	*>A_intro	*>A_intro	*>A_intro	*>A_intro	*>A_intro
1I	E:maj	3.251	newline	synthesizer	1E 1g# 1b
=2	=2	=2	=2	=2	=2
1I	E:maj	5.666	newline	synthesizer	1E 1g# 1b
=3	=3	=3	=3	=3	=3
1I	E:maj	8.035	.	synthesizer	1E 1g# 1b
=4	=4	=4	=4	=4	=4
1I	E:maj	10.405	.	synthesizer	1E 1g# 1b
=5	=5	=5	=5	=5	=5
1I	E:maj	12.774	.	synthesizer	1E 1g# 1b
=6	=6	=6	=6	=6	=6
1I	E:maj	15.144	newline	synthesizer	1E 1g# 1b
=7	=7	=7	=7	=7	=7
1I	E:maj	17.401	.	synthesizer	1E 1g# 1b
=8	=8	=8	=8	=8	=8
1I	E:maj	19.659	.	synthesizer	1E 1g# 1b
=9	=9	=9	=9	=9	=9
1I	E:maj	21.917	.	synthesizer	1E 1g# 1b
=10	=10	=10	=10	=10	=10
1I	E:maj	24.174	newline	synthesizer	1E 1g# 1b
=11	=11	=11	=11	=11	=11
1I	E:maj	26.843	.	synthesizer	1E 1g# 1b
=12	=12	=12	=12	=12	=12
1I	E:maj	29.513	newline	voice	1E 1g# 1b
=13	=13	=13	=13	=13	=13
1I	E:maj	31.568	.	voice	1E 1g# 1b
=14	=14	=14	=14	=14	=14
1I	E:maj	33.622	.	voice	1E 1g# 1b
=15	=15	=15	=15	=15	=15
1I	E:maj	35.677	.	voice	1E 1g# 1b
=16	=16	=16	=16	=16	=16
1I	E:maj	37.732	newline	voice	1E 1g# 1b
=17	=17	=17	=17	=17	=17
1I	E:maj	40.107	.	voice	1E 1g# 1b
=18	=18	=18	=18	=18	=18
1I	E:maj	42.481	.	voice	1E 1g# 1b
=19	=19	=19	=19	=19	=19
1I	E:maj	44.855	.	voice	1E 1g# 1b
=20	=20	=20	=20	=20	=20
1I	E:maj	47.229	newline	voice	1E 1g# 1b
=21	=21	=21	=21	=21	=21
1I	E:maj	49.551	.	voice	1E 1g# 1b
=22	=22	=22	=22	=22	=22
*>B_trans	*>B_trans	*>B_trans	*>B_trans	*>B_trans	*>B_trans
1i	E:min	51.873	newline	synthesizer	1E 1g 1b
=23	=23	=23	=23	=23	=23
1i	E:min	53.583	.	synthesizer	1E 1g 1b
=24	=24	=24	=24	=24	=24
1-III	G:maj	55.292	.	synthesizer	1G 1b 1dd
=25	=25	=25	=25	=25	=25
1-III	G:maj	57.001	.	synthesizer	1G 1b 1dd
=26	=26	=26	=26	=26	=26
1i	E:min	58.71	newline	synthesizer	1E 1g 1b
=27	=27	=27	=27	=27	=27
1i	E:min	60.409	.	synthesizer	1E 1g 1b
=28	=28	=28	=28	=28	=28
1-VI	C:maj	62.108	.	synthesizer	1C 1e 1g
=29	=29	=29	=29	=29	=29
1-VI	C:maj	63.806	.	synthesizer	1C 1e 1g
=30	=30	=30	=30	=30	=30
1-VI	C:maj	65.505	newline	synthesizer	1C 1e 1g
=31	=31	=31	=31	=31	=31
1-VI	C:maj	67.224	.	synthesizer	1C 1e 1g
=32	=32	=32	=32	=32	=32
*>C_verse	*>C_verse	*>C_verse	*>C_verse	*>C_verse	*>C_verse
1I	E:maj	68.943	newline	voice	1E 1g# 1b
=33	=33	=33	=33	=33	=33
1I	E:maj	70.664	.	voice	1E 1g# 1b
=34	=34	=34	=34	=34	=34
1I	E:maj	72.386	.	voice	1E 1g# 1b
=35	=35	=35	=35	=35	=35
1-VI	C:maj	74.107	.	voice	1C 1e 1g
=36	=36	=36	=36	=36	=36
1I	E:maj	75.828	newline	voice	1E 1g# 1b
=37	=37	=37	=37	=37	=37
1I	E:maj	77.551	.	voice	1E 1g# 1b
=38	=38	=38	=38	=38	=38
1I	E:maj	79.273	.	voice	1E 1g# 1b
=39	=39	=39	=39	=39	=39
1-VI	C:maj	80.996	.	voice	1C 1e 1g
=40	=40	=40	=40	=40	=40
1iv	A:min	82.718	newline	voice	1A 1cc 1ee
=41	=41	=41	=41	=41	=41
1V	B:maj	84.421	.	voice	1B 1dd# 1ff#
=42	=42	=42	=42	=42	=42
*>D_chorus	*>D_chorus	*>D_chorus	*>D_chorus	*>D_chorus	*>D_chorus
1I	E:maj	86.124	->newline	voice	1E 1g# 1b
=43	=43	=43	=43	=43	=43
1Im7d	E:7/b7	87.885	.	voice	1e 1g# 1b 1D#
=44	=44	=44	=44	=44	=44
1Ig	E:maj6/6	89.647	.	voice	1E 1g# 1b
=45	=45	=45	=45	=45	=45
1-VI	C:maj	91.408	.	voice	1C 1e 1g
=46	=46	=46	=46	=46	=46
1I	E:maj	93.17	newline	voice	1E 1g# 1b
=47	=47	=47	=47	=47	=47
1Im7d	E:7/b7	94.899	.	voice	1e 1g# 1b 1D#
=48	=48	=48	=48	=48	=48
1Ig	E:maj6/6	96.629	.	voice	1E 1g# 1b
=49	=49	=49	=49	=49	=49
1-VI	C:maj	98.359	.	voice	1C 1e 1g
=50	=50	=50	=50	=50	=50
*>C_verse	*>C_verse	*>C_verse	*>C_verse	*>C_verse	*>C_verse
1I	E:maj	100.088	newline	voice	1E 1g# 1b
=51	=51	=51	=51	=51	=51
1I	E:maj	101.837	.	voice	1E 1g# 1b
=52	=52	=52	=52	=52	=52
1I	E:maj	103.585	.	voice	1E 1g# 1b
=53	=53	=53	=53	=53	=53
1-VI	C:maj	105.333	.	voice	1C 1e 1g
=54	=54	=54	=54	=54	=54
1I	E:maj	107.081	newline	voice	1E 1g# 1b
=55	=55	=55	=55	=55	=55
1I	E:maj	108.807	.	voice	1E 1g# 1b
=56	=56	=56	=56	=56	=56
1I	E:maj	110.534	.	voice	1E 1g# 1b
=57	=57	=57	=57	=57	=57
1-VI	C:maj	112.26	.	voice	1C 1e 1g
=58	=58	=58	=58	=58	=58
1iv	A:min	113.986	newline	voice	1A 1cc 1ee
=59	=59	=59	=59	=59	=59
1V	B:maj	115.721	.	voice	1B 1dd# 1ff#
=60	=60	=60	=60	=60	=60
*>D_chorus	*>D_chorus	*>D_chorus	*>D_chorus	*>D_chorus	*>D_chorus
1I	E:maj	117.456	->newline	voice	1E 1g# 1b
=61	=61	=61	=61	=61	=61
1Im7d	E:7/b7	119.204	.	voice	1e 1g# 1b 1D#
=62	=62	=62	=62	=62	=62
1Ig	E:maj6/6	120.952	.	voice	1E 1g# 1b
=63	=63	=63	=63	=63	=63
1-VI	C:maj	122.7	.	voice	1C 1e 1g
=64	=64	=64	=64	=64	=64
1I	E:maj	124.448	newline	voice	1E 1g# 1b
=65	=65	=65	=65	=65	=65
1Im7d	E:7/b7	126.186	.	voice	1e 1g# 1b 1D#
=66	=66	=66	=66	=66	=66
1Ig	E:maj6/6	127.923	.	voice	1E 1g# 1b
=67	=67	=67	=67	=67	=67
1-VI	C:maj	129.66	.	voice	1C 1e 1g
=68	=68	=68	=68	=68	=68
1-VI	C:maj	131.397	.	voice	1C 1e 1g
=69	=69	=69	=69	=69	=69
*>E_bridge	*>E_bridge	*>E_bridge	*>E_bridge	*>E_bridge	*>E_bridge
1IV	A:maj	133.135	->newline	voice	1A 1cc# 1ee
=70	=70	=70	=70	=70	=70
2.IV	A:maj	134.865	.	voice	2A 2cc# 2ee
4-VII	D:maj	136.162	.	voice	4D 4f# 4a
=71	=71	=71	=71	=71	=71
1IV	A:maj	136.595	.	voice	1A 1cc# 1ee
=72	=72	=72	=72	=72	=72
2.IV	A:maj	138.325	.	voice	2A 2cc# 2ee
4-VII	D:maj	139.623	.	voice	4D 4f# 4a
=73	=73	=73	=73	=73	=73
1V	B:maj	140.055	newline	voice	1B 1dd# 1ff#
=74	=74	=74	=74	=74	=74
2.V	B:maj	141.767	.	voice	2B 2dd# 2ff#
4-VII	D:maj	143.05	.	voice	4D 4f# 4a
=75	=75	=75	=75	=75	=75
1V	B:maj	143.478	.	voice	1B 1dd# 1ff#
=76	=76	=76	=76	=76	=76
1V	B:maj	145.189	.	voice	1B 1dd# 1ff#
=77	=77	=77	=77	=77	=77
*>B_trans	*>B_trans	*>B_trans	*>B_trans	*>B_trans	*>B_trans
1i	E:min	146.9	newline	synthesizer	1E 1g 1b
=78	=78	=78	=78	=78	=78
1i	E:min	148.606	.	synthesizer	1E 1g 1b
=79	=79	=79	=79	=79	=79
1-III	G:maj	150.311	.	synthesizer	1G 1b 1dd
=80	=80	=80	=80	=80	=80
1-III	G:maj	152.017	.	synthesizer	1G 1b 1dd
=81	=81	=81	=81	=81	=81
1i	E:min	153.722	newline	synthesizer	1E 1g 1b
=82	=82	=82	=82	=82	=82
1i	E:min	155.426	.	synthesizer	1E 1g 1b
=83	=83	=83	=83	=83	=83
1-VI	C:maj	157.13	.	synthesizer	1C 1e 1g
=84	=84	=84	=84	=84	=84
1-VI	C:maj	158.834	.	synthesizer	1C 1e 1g
=85	=85	=85	=85	=85	=85
1-VI	C:maj	160.537	newline	synthesizer	1C 1e 1g
=86	=86	=86	=86	=86	=86
1-VI	C:maj	162.215	.	synthesizer	1C 1e 1g
=87	=87	=87	=87	=87	=87
*>D_chorus	*>D_chorus	*>D_chorus	*>D_chorus	*>D_chorus	*>D_chorus
1I	E:maj	163.892	newline	synthesizer	1E 1g# 1b
=88	=88	=88	=88	=88	=88
1Im7d	E:7/b7	165.648	.	synthesizer	1e 1g# 1b 1D#
=89	=89	=89	=89	=89	=89
1Ig	E:maj6/6	167.403	.	synthesizer	1E 1g# 1b
=90	=90	=90	=90	=90	=90
1-VI	C:maj	169.159	.	synthesizer	1C 1e 1g
=91	=91	=91	=91	=91	=91
1I	E:maj	170.914	newline	synthesizer	1E 1g# 1b
=92	=92	=92	=92	=92	=92
1Im7d	E:7/b7	172.65	.	synthesizer	1e 1g# 1b 1D#
=93	=93	=93	=93	=93	=93
1Ig	E:maj6/6	174.387	.	synthesizer	1E 1g# 1b
=94	=94	=94	=94	=94	=94
1-VI	C:maj	176.123	.	synthesizer	1C 1e 1g
=95	=95	=95	=95	=95	=95
*>D_chorus	*>D_chorus	*>D_chorus	*>D_chorus	*>D_chorus	*>D_chorus
1I	E:maj	177.859	newline	synthesizer	1E 1g# 1b
=96	=96	=96	=96	=96	=96
1Im7d	E:7/b7	179.585	.	synthesizer	1e 1g# 1b 1D#
=97	=97	=97	=97	=97	=97
1Ig	E:maj6/6	181.31	.	synthesizer	1E 1g# 1b
=98	=98	=98	=98	=98	=98
1-VI	C:maj	183.036	.	synthesizer	1C 1e 1g
=99	=99	=99	=99	=99	=99
1I	E:maj	184.761	newline	synthesizer	1E 1g# 1b
=100	=100	=100	=100	=100	=100
1Im7d	E:7/b7	186.506	.	synthesizer	1e 1g# 1b 1D#
=101	=101	=101	=101	=101	=101
1Ig	E:maj6/6	188.251	.	synthesizer	1E 1g# 1b
=102	=102	=102	=102	=102	=102
1-VI	C:maj	189.996	.	synthesizer	1C 1e 1g
=103	=103	=103	=103	=103	=103
*>D_chorus	*>D_chorus	*>D_chorus	*>D_chorus	*>D_chorus	*>D_chorus
1I	E:maj	191.741	newline	synthesizer	1E 1g# 1b
=104	=104	=104	=104	=104	=104
1Im7d	E:7/b7	193.475	.	synthesizer	1e 1g# 1b 1D#
=105	=105	=105	=105	=105	=105
1Ig	E:maj6/6	195.209	.	synthesizer	1E 1g# 1b
=106	=106	=106	=106	=106	=106
1-VI	C:maj	196.943	.	synthesizer	1C 1e 1g
=107	=107	=107	=107	=107	=107
1I	E:maj	198.677	newline	synthesizer	1E 1g# 1b
=108	=108	=108	=108	=108	=108
1Im7d	E:7/b7	200.425	.	synthesizer	1e 1g# 1b 1D#
=109	=109	=109	=109	=109	=109
1Ig	E:maj6/6	202.173	.	synthesizer	1E 1g# 1b
=110	=110	=110	=110	=110	=110
1-VI	C:maj	203.922	.	synthesizer	1C 1e 1g
=111	=111	=111	=111	=111	=111
*>D_chorus	*>D_chorus	*>D_chorus	*>D_chorus	*>D_chorus	*>D_chorus
1I	E:maj	205.67	newline	synthesizer	1E 1g# 1b
=112	=112	=112	=112	=112	=112
1Im7d	E:7/b7	207.413	.	synthesizer	1e 1g# 1b 1D#
=113	=113	=113	=113	=113	=113
1Ig	E:maj6/6	209.155	.	synthesizer	1E 1g# 1b
=114	=114	=114	=114	=114	=114
1-VI	C:maj	210.898	.	synthesizer	1C 1e 1g
=115	=115	=115	=115	=115	=115
1I	E:maj	212.641	newline	voice	1E 1g# 1b
=116	=116	=116	=116	=116	=116
1Im7d	E:7/b7	214.359	.	voice	1e 1g# 1b 1D#
=117	=117	=117	=117	=117	=117
1Ig	E:maj6/6	216.078	.	voice	1E 1g# 1b
=118	=118	=118	=118	=118	=118
1-VI	C:maj	217.796	.	voice	1C 1e 1g
=119	=119	=119	=119	=119	=119
*>D_fadeout	*>D_fadeout	*>D_fadeout	*>D_fadeout	*>D_fadeout	*>D_fadeout
1I	E:maj	219.515	newline	synthesizer	1E 1g# 1b
=120	=120	=120	=120	=120	=120
1Im7d	E:7/b7	221.24	.	synthesizer	1e 1g# 1b 1D#
=121	=121	=121	=121	=121	=121
1Ig	E:maj6/6	222.965	.	synthesizer	1E 1g# 1b
=122	=122	=122	=122	=122	=122
1-VI	C:maj	224.689	.	synthesizer	1C 1e 1g
=123	=123	=123	=123	=123	=123
1I	E:maj	226.414	newline	synthesizer	1E 1g# 1b
=124	=124	=124	=124	=124	=124
1Im7d	E:7/b7	227.906	.	synthesizer	1e 1g# 1b 1D#
=125	=125	=125	=125	=125	=125
1Ig	E:maj6/6	229.397	.	synthesizer	1E 1g# 1b
=126	=126	=126	=126	=126	=126
1-VI	C:maj	230.889	.	synthesizer	1C 1e 1g
=127	=127	=127	=127	=127	=127
1I	E:maj	232.38	.	synthesizer	1E 1g# 1b
1r;	N	233.871	.	r	1r;
1r;	N	237.688	.	r	1r;
*-	*-	*-	*-	*-	*-
!!!OTL: Stop This Game
!!!COC: Cheap Trick
!!!BillboardChartDate: 1980/12/06
!!!BillboardPeak: 48
!!!BillboardWeeksOnChart: 12
!!!SampleTargetRank: 48
!!!SampleActualRank: 48
!!!SampleID#: 0539
!!!RDF**harmony: **recip + pitch class of root + harmonic quality
!!!RDF**harte: Chris Harte's syntax, used by MIREX
!!!RDF**phrase: newline = linebreak in original McGill transcription
!!!RDF**timestamp: McGill audio timestamp in seconds
!!!RDF**leadinstrument: original McGill primary instrumentation annotation
!!!RDT: 2017/01/12/
!!!ENC: Nathaniel Condit-Schultz
!!!EST: Awating manual error checking and editing.
